!!! OTL: Berkowitz465
!!! Chapter: 1
!!! Section: IV
!!! Page: 116
!!! Mode: 
!!! Encoder: DJB
**kern
*staff1
*I"Piano
=1-
*clefC4
*k[b-e-a-]
*E-:
*M3/4
4r
4B-\
4B-\
=2
8G\L
8B-\J
4E-/
4E-/
=3
8D/L
8F/J
4BB-/
4c\
=4
8Bn\L
8c\J
4F/
4F#/
=5
4G/
4r
4e-\
=6
8c\L
8e-\J
4A-\
4c\
=7
8An\L
8B-\J
4E-/
4G/
=8
4F/
4BB-/
4c\
=9
4B-\
4e-\
4e-\
=10
8d\L
8e-\J
4A-\
4e-\
=11
8d\L
8e-\J
4G/
4En/
=12
!!linebreak:original
8F/L
8G/J
8A-\L
8B-\J
8c\L
8d\J
=13
2.e-\
==
*-
